!!!!SEGMENT: pl-cz--ii-87--009-002_chwalibog-izydor-konstanty--msza-zalobna-graduale.krn
!!!cenid: 18xx:1208
!!!COM: Chwalibóg, Izydor Konstanty
!!!COM-rismid: pe30020334
!!!CDT: 1826-1897
!!!CNT:
!!!OPR: Msza żałobna
!!!OTL: Graduale
!!!OMV: 002
!!!PDT:
!!!AGN: Sacred; Mass
!!!SMS-siglum: PL-CZ
!!!SMS-shelfmark: II-87
!!!SMS-shelfwork: 009-002 M
!!!SMS-variant:
!!!SMS-altvar:
!!!NIFC-rismid: 300033232
!!!URL-scan: http://repozytorium.nifc.pl/skany/pl-cz-nut--ii-87
!!!ONB-nifc: UWAGA: części Mszy: Kirie, Graduale, Offertorium, Sanctus, Benedictus, Agnus
!!!key: E-
**kern	**kern	**kern	**kern	**text
*part3	*part3	*part2	*part1	*part1
*staff4	*staff3	*staff2	*staff1	*staff1
*ICklav	*ICklav	*ICvox	*ICvox	*
*IGacmp	*IGacmp	*IGcoro	*IGcoro	*
*Iorgan	*Iorgan	*Ibass	*Itenor	*
*I"	*I"	*I"	*I"	*
*clefF4	*clefG2	*clefF4	*clefG2	*
*k[b-e-a-]	*k[b-e-a-]	*k[b-e-a-]	*k[b-e-a-]	*
*E-:	*E-:	*E-:	*	*
*M4/4	*M4/4	*M4/4	*M4/4	*
*met(c)	*met(c)	*met(c)	*met(c)	*
=1	=1	=1	=1	=1
*^	*	*	*^	*
!	!	!	!LO:TX:t=P:problem=klucz wiolinowy poprawiony na basowy	!LO:TX:t=P:problem=skan 29,30	!	!
2c/	2C\	2cc\	2c\	2cc/	2cc\	Gdy
2c/	2C\	2cc\	2c\	2cc/	2cc\	dzen
=2	=2	=2	=2	=2	=2	=2
2Bn/	2BBn\	2bn\	2Bn/	2bn/	2bn\	stra-
2C\ 2c	2ryy	2cc\	2c/	2cc/	2cc\	-szny
*v	*v	*	*	*	*	*
=3	=3	=3	=3	=3	=3
2C\ 2c	2cc\	2c\	2cc/	2cc\	są-
4.E-\ 4.e-	4.ee-\	4.e-\	4.ee-/	4.ee-\	.
8D\ 8d	8dd\	8d\	8dd/	8dd\	-du
=4	=4	=4	=4	=4	=4
2D\ 2d	2dd\	2d\	2dd/	2dd\	Twe-
4C\ 4c	4cc\	4c\	4cc\	4ryy	-go
4r	4r	4r	4r	4ryy	.
=5	=5	=5	=5	=5	=5
2C\ 2c	2cc\ 2ccc	2c\	2cc/	2cc\	ze-
2BB-\ 2B-	2b-\ 2bb-	2B-\	2b-/	2b-\	-trze
=6	=6	=6	=6	=6	=6
!!linebreak:original
2AA-\ 2A-	2a-\ 2aa-	2A-\	2a-/	2a-\	sla-
4GG\ 4G	4g\ 4gg	4G\	4g/	4g\	.
4FF\ 4F	4f\ 4ff	4F\	4f/	4f\	-dy
=7	=7	=7	=7	=7	=7
2E-\	2ee-\	2E-\	2e-/	2e-\	swia-
4D\	4dd\	4D\	4d/	4d\	.
4C\	4cc\	4C\	4c/	4c\	-ta
=8	=8	=8	=8	=8	=8
1C	1e- 1g 1cc	2C\	2cc/	2e-\	te-
.	.	4C\	4cc/	4e-\	-go
.	.	4r	4r	4ryy	.
=9	=9	=9	=9	=9	=9
2.FF/ 2.F	2e-/ 2a- 2ee-	2F\	2ee-/	2a-\	Dawid
.	4d/ 4a- 4dd	4F\	4dd/	4a-\	z
4FF#X/ 4F#X	4d/ 4an 4cc	4F#X\	4cc/	4an\	sy-
=10	=10	=10	=10	=10	=10
1GG 1G	1d 1g 1bn	2G\	2bn/	2g\	-bil-
.	.	2G\	2b/	2g\	-lą
=11	=11	=11	=11	=11	=11
*^	*^	*	*	*	*
2E-/	2C\	[<1c [>1cc	2e-\	2C\	2cc/	2e-\	swiad-
4F/	4D\	.	2ryy	4D\	2cc/	4f\	-kiem
4G/	4E-\	.	.	4E-\	.	4g\	.
*	*	*v	*v	*	*	*	*
=12	=12	=12	=12	=12	=12	=12
!	!	!	!	!LO:TX:a:t=a	!	!
2A-/	2F\	1c] 1cc]	2F\	2cc/	2a-\	te-
4G/	4E-\	.	4E-\	2cc/	4g\	-go
4F/	4D\	.	4D\	.	4f\	.
=13	=13	=13	=13	=13	=13	=13
!!pagebreak:original
*	*^	*^	*	*	*	*
*	*	*	*	*^	*	*	*	*
1G	2E-/	2C\	2cc/	1g	2e-\	2C\	2cc/	2e-\	Ja-
.	2D/	2BBn\	2dd/	.	2f\	2BBn\	2dd/	2g\	-ko
*	*v	*v	*	*	*	*	*	*	*
=14	=14	=14	=14	=14	=14	=14	=14	=14
1E- 1G	2C\	2ee-/	1g	2e-\	2C\	2ee-/	2g\	wie-
.	2ryy	2cc/	.	2c\	2E-\	2cc/	2g\	-lki
*v	*v	*	*	*	*	*	*	*
=15	=15	=15	=15	=15	=15	=15	=15
2.GG/ 2.G	2dd/	2bn\	1g	4G\	4dd/	4bn\	strach
.	.	.	.	4G\	4dd/	4b\	to
.	4b/ 4ee-	4ryy	.	4GG/	4ee-/	4g\	be-
4BBn/ 4Bn	4dd/	4f\	.	4BBn/	4dd/	4f\	-dzie
=16	=16	=16	=16	=16	=16	=16	=16
*^	*	*	*	*	*	*	*
2C\ 2c	2ryy	2cc/	1g	2e-\	2C\	2cc/	2e-\	Gdy
2G/	2E-\	2cc/ 2ee-	.	2ryy	2E-\	2ee-/	2g\	Bóg
*	*	*	*v	*v	*	*	*	*
=17	=17	=17	=17	=17	=17	=17	=17
2A-/	2F\	4dd/	4g\	4F\	4dd/	4f\	na
.	.	4ff/	4a-\	4F\	4ff/	4a-\	sąd
2Bn/	2G\	4ee-/	4g\	4G/	4ee-/	4g\	sam
.	.	4dd/	4f\	4GG/	4dd/	4f\	za-
*v	*v	*	*	*	*	*	*
*	*v	*v	*	*	*	*
=18	=18	=18	=18	=18	=18
2c\	2e-/ 2cc	2C\	2cc/	2e-\	-sią-
8C\L	8e-/L 8cc	4C\	4cc/	4e-\	-ndzie
8G\	8g/	.	.	.	.
8F#X\	8f#X/	4r	4r	4ryy	.
8G\J	8g/J	.	.	.	.
*	*	*	*v	*v	*
=19	=19	=19	=19	=19
!!linebreak:original
!	!	!LO:N:vis=2	!	!
2.C\ 2.c	2.cc\	2.c\	2.cc\	Dob-
4C\ 4c	4cc\	4c\	4cc\	-ry
=20	=20	=20	=20	=20
2BBn\ 2Bn	2bn\	2Bn\	2bn\	Je-
2C\ 2c	2cc\	2c\	2cc\	-zu
=21	=21	=21	=21	=21
2C\ 2c	2cc\	2c\	2cc\	Chris-
4.E-\ 4.e-	4.ee-\	4.e-\	4.ee-\	.
8D\ 8d	8dd\	8d\	8dd\	-te
=22	=22	=22	=22	=22
2D\ 2d	2dd\	2d\	2dd\	Pa-
4C\ 4c	4cc\	4c\	4cc\	-nie
4r	4r	4r	4r	.
=23	=23	=23	=23	=23
2C\ 2c	2cc\	2c\	2cc\	Daj
4BB-\ 4B-	4b-\	4B-\	4b-\	.
4AA-\ 4A-	4a-\	4A-\	4a-\	im
=24	=24	=24	=24	=24
*	*	*	*^	*
2G\	2g/	2G\	2g/	2g\	wiecz-
2F\	2f/	2F\	2f/	2f\	.
=25	=25	=25	=25	=25	=25
!!linebreak:original
!	!	!	!LO:N:vis=2.	!	!
2.C;\	2.c;/ 2.e- 2.cc	2C;\	2cc;/	2e-\	-nie
.	.	4C\	4cc/	4e-\	.
4r	4r	4r	4r	4ryy	.
*	*	*	*v	*v	*
==	==	==	==	==
*-	*-	*-	*-	*-
!!!system-decoration: [(s1,s2s3,s4)]
!!!AIN: 1 bass 1 organ 1 tenor
!!!ENC: Katarzyna Serwa
!!!END: 2020-11-08
!!!ENC: Krzysztof Stępień
!!!END: 2021-11-15
!!!RDF**kern: > = above
!!!RDF**kern: < = below
